X: 46
T:Haunted House, The
M:6/8
L:1/8
C:Vincent Broderick
R:Double Jig
K:G
D[|:G3 AGA|BGE EDE|GBd egd|ege edB|!
G3 AGA|BGE EDE|GBd ege|dBG G2D:|]!
GBd egd|ege edB|GBd ded|ded dBA|!
GBd egd|ege edB|GBd ege|dBA G3||!
GBd egd|ege edB|GBd ded|ded dBA|!
G3 AGA|BGE EDE|GBd ege|dBA G3|]!
